X:1
T:Strange Meeting
C:Bill Frisell
Z:All Rights Reserved
L:1/8
Q:1/4=110
M:4/4
K:Cmin
V:1 treble nm=" " snm=" "
%%MIDI control 7 100
%%MIDI control 10 64
V:1
"Cm" e8 |"D/F#" d8 |"^Ab^(#11)" c8- | c4 z2 z _g |"Abm9" f8 | z8 |"Cm" e8 | z6 z G ||"Cm" e8 | %9
"D/F#" d8 |"^Ab^(#11)" c8- | c4 z2 z _g |"Abm9" f8 | z8 |"Cm" e8 | z6 ef ||"Fm9" g6 z a | %17
"G7b9" f6 z g |"Cm" e8 | z6 ef |"Fm9" g6 z a |"G7b9" f6 z g |"Cm" e8 |"G7b9" d6 z G ||"Fm" A8 | %25
"D/F#" d8 |"^Ab^(#11)" c8 | z6 z _g |"Abm9" f8 | z8 |"Cm" e8 | z8 |] %32

